public/images/bd12.svg

<svg width="100" height="100" viewBox="0 0 100 100" fill="none" xmlns="http://www.w3.org/2000/svg">
<path d="M63.4516 17.3315C63.9283 17.3315 64.2991 16.9431 64.2991 16.484V10.0574C64.2991 4.97253 55.0299 1 43.1829 1C31.3359 1 22.0667 4.97253 22.0667 10.0574V54.9381C22.0667 60.0229 31.3359 63.9955 43.1829 63.9955C55.0299 63.9955 64.2991 60.0229 64.2991 54.9381V53.8611C64.2991 53.3844 63.9107 53.0136 63.4516 53.0136C62.9749 53.0136 62.6041 53.4021 62.6041 53.8611V54.9381C62.6041 58.4869 54.8003 62.2829 43.2006 62.2829C31.6008 62.2829 23.7793 58.4869 23.7793 54.9381V44.3094C26.9926 47.5227 34.3727 49.7297 43.1829 49.7297C44.666 49.7297 46.1667 49.6591 47.6145 49.5355C48.0912 49.5002 48.4266 49.0764 48.3913 48.5997C48.356 48.123 47.9323 47.7876 47.4556 47.8229C46.0608 47.9465 44.6307 48.0171 43.1829 48.0171C31.5831 48.0171 23.7793 44.2211 23.7793 40.6723V29.461C26.9926 32.6743 34.3727 34.8813 43.1829 34.8813C44.6836 34.8813 46.1667 34.8106 47.6145 34.687C48.0912 34.6517 48.4266 34.228 48.3913 33.7513C48.356 33.2746 47.9323 32.9391 47.4556 32.9744C46.0608 33.098 44.613 33.1687 43.1652 33.1687C31.5655 33.1687 23.7617 29.3727 23.7617 25.8239V13.6944C26.975 16.9078 34.3551 19.1147 43.1652 19.1147C51.9754 19.1147 59.3732 16.9078 62.5688 13.6944V16.484C62.5865 16.9431 62.9749 17.3315 63.4516 17.3315ZM43.1829 17.4021C31.5831 17.4021 23.7793 13.6062 23.7793 10.0574C23.7793 6.50857 31.5831 2.7126 43.1829 2.7126C54.7827 2.7126 62.5865 6.50857 62.5865 10.0574C62.5865 13.6062 54.7827 17.4021 43.1829 17.4021Z" fill="url(#paint0_linear_1_7290)"/>
<path d="M77.6292 29.9022C77.6115 29.8316 77.5939 29.7609 77.5586 29.6903C77.5586 29.6727 77.5409 29.655 77.5233 29.6373C77.4879 29.5667 77.435 29.5138 77.382 29.4608L73.074 25.1528L70.2138 22.2926L67.3536 19.4324C67.1947 19.2735 66.9828 19.1852 66.7533 19.1852H52.7347C52.258 19.1852 51.8872 19.5736 51.8872 20.0327V45.139C51.8872 45.6157 52.2756 45.9865 52.7347 45.9865H54.7298V47.9816C54.7298 48.4583 55.1182 48.8291 55.5772 48.8291H57.5723V50.8242C57.5723 51.3009 57.9608 51.6716 58.4198 51.6716H76.7641C77.2408 51.6716 77.6115 51.2832 77.6115 50.8242V30.0611C77.6468 30.0081 77.6292 29.9551 77.6292 29.9022ZM73.3212 27.8188L74.716 29.2136H73.3212V27.8188ZM53.5998 44.2916V20.8978H66.4002L67.5478 22.0454H55.5949C55.1182 22.0454 54.7474 22.4338 54.7474 22.8929V44.2916H53.5998ZM56.46 47.1518V23.758H69.2604L70.408 24.9056H58.4551C57.9784 24.9056 57.6076 25.294 57.6076 25.7531V47.1518H56.46ZM59.3026 50.012V26.6006H71.6086V30.0611C71.6086 30.5378 71.997 30.9086 72.4561 30.9086H75.9166V49.9943H59.3026V50.012Z" fill="url(#paint1_linear_1_7290)"/>
<path d="M65.7998 34.0514C66.2059 33.8218 66.3648 33.2922 66.1353 32.8861C65.9058 32.48 65.3761 32.3211 64.97 32.5506C64.8994 32.586 63.1162 33.61 63.1162 36.1524C63.1162 38.1651 62.1098 38.324 61.792 38.377C61.3683 38.4476 61.0681 38.8008 61.0681 39.2245C61.0681 39.6482 61.3683 40.0013 61.792 40.072C62.1275 40.1249 63.1162 40.2838 63.1162 42.2966C63.1162 44.839 64.8817 45.863 64.97 45.8983C65.0936 45.969 65.2525 46.0043 65.3938 46.0043C65.6939 46.0043 65.994 45.8454 66.1353 45.5629C66.3648 45.1568 66.2236 44.6271 65.7998 44.3976C65.7822 44.3976 64.8288 43.815 64.8288 42.2966C64.8288 40.7429 64.3521 39.8071 63.7694 39.2245C64.3521 38.6595 64.8288 37.7061 64.8288 36.1524C64.8288 34.6517 65.7645 34.069 65.7998 34.0514Z" fill="url(#paint2_linear_1_7290)"/>
<path d="M73.4624 38.3949C73.1269 38.342 72.1382 38.1831 72.1382 36.1703C72.1382 33.6279 70.3727 32.6039 70.2844 32.5686C69.8783 32.339 69.3486 32.4803 69.1191 32.904C68.8896 33.3101 69.0308 33.8398 69.4546 34.0693C69.4722 34.0693 70.4256 34.6519 70.4256 36.1703C70.4256 37.724 70.9023 38.6598 71.485 39.2424C70.9023 39.8074 70.4256 40.7608 70.4256 42.3145C70.4256 43.7976 69.5075 44.3979 69.4546 44.4332C69.0485 44.6627 68.9072 45.1747 69.1368 45.5985C69.2957 45.881 69.5782 46.0399 69.8783 46.0399C70.0195 46.0399 70.1608 46.0045 70.302 45.9339C70.3727 45.8986 72.1559 44.8746 72.1559 42.3322C72.1559 40.3194 73.1623 40.1605 73.4801 40.1075C73.9038 40.0369 74.2039 39.6838 74.2039 39.2601C74.1686 38.8187 73.8685 38.4479 73.4624 38.3949Z" fill="url(#paint3_linear_1_7290)"/>
<path d="M29.8528 81.5985L28.8465 78.8089H25.0152L24.0265 81.5985H22.2962L26.0569 71.5171H27.8401L31.6007 81.5985H29.8528ZM28.4051 77.3964L27.4693 74.6598C27.3987 74.4832 27.3104 74.1831 27.1868 73.7947C27.0632 73.4062 26.975 73.1061 26.9396 72.9295C26.8161 73.4945 26.6395 74.1125 26.3923 74.7834L25.4919 77.3964H28.4051Z" fill="black"/>
<path d="M39.1397 81.5981H37.5153V76.9193C37.5153 76.3367 37.4094 75.9129 37.1799 75.6128C36.968 75.3303 36.6149 75.189 36.1559 75.189C35.5379 75.189 35.0789 75.3833 34.7787 75.7893C34.4962 76.1954 34.3373 76.8663 34.3373 77.8021V81.5981H32.7307V74.0061H34.0019L34.2314 74.9948H34.3197C34.5315 74.6417 34.8317 74.3592 35.2378 74.165C35.6438 73.9708 36.0852 73.8649 36.5619 73.8649C37.7272 73.8649 38.5041 74.2709 38.8748 75.0655H38.9808C39.2103 74.6947 39.5281 74.3945 39.9342 74.1827C40.3403 73.9708 40.7993 73.8649 41.329 73.8649C42.2294 73.8649 42.9003 74.0944 43.3064 74.5534C43.7125 75.0125 43.9244 75.7011 43.9244 76.6545V81.5981H42.3177V76.9193C42.3177 76.3367 42.2118 75.9129 41.9822 75.6128C41.7527 75.3303 41.4172 75.189 40.9405 75.189C40.3049 75.189 39.8635 75.3833 39.5634 75.7717C39.2809 76.1601 39.122 76.7604 39.122 77.5726V81.5981H39.1397Z" fill="black"/>
<path d="M50.9336 81.5981L50.6158 80.5387H50.5628C50.1921 80.9978 49.8213 81.3156 49.4505 81.4745C49.0798 81.6334 48.6031 81.7216 48.0204 81.7216C47.2789 81.7216 46.6962 81.5274 46.2725 81.1213C45.8488 80.7153 45.6369 80.1503 45.6369 79.4088C45.6369 78.6319 45.9194 78.0316 46.502 77.6432C47.0847 77.2371 47.9675 77.0252 49.1504 76.9899L50.4569 76.9546V76.5485C50.4569 76.0718 50.351 75.7011 50.1214 75.4539C49.8919 75.2067 49.5388 75.1008 49.0621 75.1008C48.6737 75.1008 48.3029 75.1537 47.9498 75.2773C47.5967 75.3833 47.2436 75.5245 46.9258 75.6834L46.3961 74.5358C46.8022 74.3239 47.2612 74.165 47.7556 74.0414C48.2499 73.9355 48.709 73.8649 49.1504 73.8649C50.1214 73.8649 50.8453 74.0767 51.3397 74.5005C51.834 74.9242 52.0812 75.5775 52.0812 76.4779V81.5981H50.9336ZM48.5324 80.5034C49.1151 80.5034 49.5918 80.3445 49.9449 80.009C50.298 79.6736 50.4746 79.2145 50.4746 78.6319V77.9786L49.5035 78.014C48.7443 78.0493 48.197 78.1729 47.8439 78.4024C47.4907 78.6319 47.3318 78.9674 47.3318 79.4441C47.3318 79.7795 47.4378 80.0444 47.632 80.2209C47.8262 80.4151 48.1264 80.5034 48.5324 80.5034Z" fill="black"/>
<path d="M59.4083 81.5984H53.6526V80.6096L57.4839 75.2423H53.8821V74.0064H59.3024V75.1364L55.5417 80.3625H59.4083V81.5984Z" fill="black"/>
<path d="M67.7947 77.7844C67.7947 79.0203 67.4769 79.9914 66.8413 80.68C66.2057 81.3685 65.3229 81.7216 64.1929 81.7216C63.4867 81.7216 62.8511 81.5627 62.3038 81.2449C61.7564 80.9271 61.3327 80.4681 61.0502 79.8678C60.7501 79.2675 60.6088 78.5789 60.6088 77.7844C60.6088 76.5485 60.9266 75.5951 61.5622 74.9066C62.1978 74.218 63.0806 73.8649 64.2282 73.8649C65.3229 73.8649 66.188 74.218 66.8413 74.9242C67.4592 75.6304 67.7947 76.5838 67.7947 77.7844ZM62.2685 77.7844C62.2685 79.5323 62.9217 80.4151 64.2106 80.4151C65.4994 80.4151 66.1351 79.5323 66.1351 77.7844C66.1351 76.0542 65.4818 75.189 64.1929 75.189C63.522 75.189 63.0277 75.4186 62.7275 75.86C62.4097 76.3013 62.2685 76.9546 62.2685 77.7844Z" fill="black"/>
<path d="M76.3224 81.5981H74.6981V76.937C74.6981 76.3543 74.5745 75.9129 74.345 75.6304C74.1155 75.3479 73.727 75.189 73.215 75.189C72.5264 75.189 72.0321 75.3833 71.7143 75.7893C71.3965 76.1954 71.2376 76.8663 71.2376 77.8197V81.5981H69.6309V74.0061H70.9021L71.1317 74.9948H71.2199C71.4495 74.6417 71.7673 74.3592 72.191 74.165C72.6147 73.9708 73.0738 73.8649 73.5858 73.8649C75.4043 73.8649 76.3224 74.783 76.3224 76.6368V81.5981Z" fill="black"/>
<path d="M14.1569 93.357C14.1569 95.0166 13.6979 96.2878 12.7798 97.1529C11.8617 98.0357 10.5375 98.4595 8.80725 98.4595H6V88.431H9.1074C10.6964 88.431 11.95 88.8548 12.8327 89.7199C13.7155 90.585 14.1569 91.7856 14.1569 93.357ZM12.4267 93.4099C12.4267 91.0088 11.2967 89.8082 9.05443 89.8082H7.64198V97.0823H8.80725C11.2261 97.0823 12.4267 95.8641 12.4267 93.4099Z" fill="black"/>
<path d="M22.8788 94.6639C22.8788 95.8998 22.561 96.8709 21.9254 97.5595C21.2898 98.2481 20.407 98.6012 19.277 98.6012C18.5708 98.6012 17.9352 98.4423 17.3879 98.1245C16.8406 97.8067 16.4168 97.3476 16.1343 96.7473C15.8342 96.147 15.6929 95.4585 15.6929 94.6639C15.6929 93.4281 16.0107 92.4746 16.6463 91.7861C17.2819 91.0975 18.1647 90.7444 19.3123 90.7444C20.407 90.7444 21.2721 91.0975 21.9254 91.8037C22.561 92.51 22.8788 93.4634 22.8788 94.6639ZM17.3526 94.6639C17.3526 96.4119 18.0058 97.2946 19.2947 97.2946C20.5836 97.2946 21.2192 96.4119 21.2192 94.6639C21.2192 92.9337 20.5659 92.0686 19.277 92.0686C18.6061 92.0686 18.1118 92.2981 17.8116 92.7395C17.4938 93.1809 17.3526 93.8165 17.3526 94.6639Z" fill="black"/>
<path d="M27.787 98.6012C26.6394 98.6012 25.7742 98.2657 25.1739 97.5948C24.5736 96.9239 24.2735 95.9705 24.2735 94.7169C24.2735 93.4457 24.5913 92.457 25.2092 91.7684C25.8272 91.0798 26.7276 90.7444 27.9106 90.7444C28.7051 90.7444 29.429 90.8856 30.0646 91.1858L29.5702 92.4746C28.8816 92.2098 28.3343 92.0686 27.8753 92.0686C26.5687 92.0686 25.8978 92.9337 25.8978 94.6816C25.8978 95.5291 26.0567 96.1647 26.3922 96.6061C26.7276 97.0298 27.2043 97.2417 27.8223 97.2417C28.5462 97.2417 29.2171 97.0651 29.8527 96.712V98.1245C29.5702 98.301 29.2524 98.407 28.9346 98.4952C28.6521 98.5659 28.246 98.6012 27.787 98.6012Z" fill="black"/>
<path d="M37.0386 98.4597L36.8091 97.471H36.7208C36.4913 97.8241 36.1735 98.1066 35.7674 98.3008C35.3613 98.495 34.8846 98.6009 34.3549 98.6009C33.4368 98.6009 32.7483 98.3714 32.2892 97.9124C31.8302 97.4533 31.6183 96.7647 31.6183 95.829V90.8677H33.2426V95.5465C33.2426 96.1291 33.3662 96.5705 33.5957 96.853C33.8252 97.1355 34.2137 97.2944 34.708 97.2944C35.3789 97.2944 35.891 97.1002 36.2088 96.6941C36.5266 96.288 36.6855 95.6171 36.6855 94.6637V90.8854H38.3098V98.4773H37.0386V98.4597Z" fill="black"/>
<path d="M46.9965 98.4597H45.3722V93.7809C45.3722 93.1983 45.2662 92.7746 45.0367 92.4744C44.8248 92.1919 44.4717 92.0507 44.0127 92.0507C43.3947 92.0507 42.9357 92.2449 42.6355 92.651C42.353 93.0571 42.1941 93.728 42.1941 94.6637V98.4421H40.5875V90.8501H41.8587L42.0882 91.8388H42.1765C42.3883 91.4857 42.6885 91.2032 43.0946 91.009C43.5006 90.8148 43.942 90.7089 44.4187 90.7089C45.584 90.7089 46.3609 91.1149 46.7316 91.9095H46.8376C47.0671 91.5387 47.3849 91.2385 47.791 91.0267C48.1971 90.8148 48.6561 90.7089 49.1858 90.7089C50.0862 90.7089 50.7571 90.9384 51.1632 91.3974C51.5693 91.8565 51.7812 92.5451 51.7812 93.4985V98.4421H50.1745V93.7809C50.1745 93.1983 50.0686 92.7746 49.839 92.4744C49.6095 92.1919 49.2741 92.0507 48.7974 92.0507C48.1617 92.0507 47.7204 92.2449 47.4202 92.6333C47.1377 93.0218 46.9788 93.6221 46.9788 94.4342V98.4597H46.9965Z" fill="black"/>
<path d="M57.3602 98.6012C56.1772 98.6012 55.2591 98.2657 54.5882 97.5771C53.9173 96.8886 53.5818 95.9352 53.5818 94.7346C53.5818 93.4987 53.882 92.5276 54.4999 91.8037C55.1179 91.0975 55.9654 90.7444 57.0424 90.7444C58.0487 90.7444 58.8432 91.0445 59.4259 91.6625C60.0085 92.2628 60.291 93.1103 60.291 94.1696V95.0347H55.2415C55.2591 95.7763 55.471 96.3412 55.8418 96.7297C56.2125 97.1181 56.7422 97.33 57.4308 97.33C57.8722 97.33 58.2959 97.2946 58.6843 97.2064C59.0728 97.1181 59.4788 96.9768 59.9379 96.7826V98.0892C59.5495 98.2834 59.1434 98.407 58.7373 98.4952C58.3312 98.5659 57.8722 98.6012 57.3602 98.6012ZM57.06 91.9626C56.548 91.9626 56.1419 92.1215 55.8241 92.457C55.524 92.7748 55.3298 93.2515 55.2768 93.8694H58.7197C58.702 93.2515 58.5608 92.7748 58.2606 92.4393C57.9781 92.1215 57.572 91.9626 57.06 91.9626Z" fill="black"/>
<path d="M68.8189 98.4597H67.2123V93.7986C67.2123 93.2159 67.0887 92.7746 66.8591 92.4921C66.6296 92.2096 66.2412 92.0507 65.7292 92.0507C65.0406 92.0507 64.5463 92.2449 64.2285 92.651C63.9107 93.057 63.7517 93.728 63.7517 94.6814V98.4597H62.1451V90.8677H63.4163L63.6458 91.8565H63.7341C63.9636 91.5033 64.2814 91.2209 64.7052 91.0266C65.1289 90.8324 65.5879 90.7265 66.1 90.7265C67.9185 90.7265 68.8366 91.6446 68.8366 93.4984V98.4597H68.8189Z" fill="black"/>
<path d="M73.9036 97.2943C74.2921 97.2943 74.6981 97.2237 75.0866 97.1001V98.3184C74.91 98.389 74.6805 98.4596 74.398 98.5126C74.1155 98.5655 73.833 98.5832 73.5152 98.5832C71.9792 98.5832 71.22 97.771 71.22 96.1644V92.0683H70.1783V91.362L71.2906 90.7794L71.8379 89.1727H72.8266V90.8677H74.9806V92.0859H72.8266V96.1467C72.8266 96.5352 72.9149 96.8176 73.1268 97.0119C73.321 97.2061 73.5858 97.2943 73.9036 97.2943Z" fill="black"/>
<path d="M84.9208 93.357C84.9208 95.0166 84.4618 96.2878 83.5437 97.1529C82.6256 98.0357 81.3014 98.4595 79.5712 98.4595H76.7639V88.431H79.8713C81.4603 88.431 82.7139 88.8548 83.5967 89.7199C84.4794 90.585 84.9208 91.7856 84.9208 93.357ZM83.1906 93.4099C83.1906 91.0088 82.0606 89.8082 79.8183 89.8082H78.4059V97.0823H79.5712C81.99 97.0823 83.1906 95.8641 83.1906 93.4099Z" fill="black"/>
<path d="M87.0749 88.431H90.0587C91.4358 88.431 92.4422 88.6252 93.0602 89.0313C93.6781 89.4374 93.9783 90.073 93.9783 90.9381C93.9783 91.5208 93.8194 92.0151 93.5192 92.4036C93.2191 92.792 92.7777 93.0392 92.2127 93.1451V93.2157C92.9189 93.357 93.4309 93.6041 93.7664 94.0102C94.1018 94.3986 94.2608 94.9283 94.2608 95.5992C94.2608 96.4997 93.9429 97.2059 93.325 97.7179C92.6894 98.2299 91.8243 98.4771 90.6943 98.4771H87.0749V88.431ZM88.7169 92.5801H90.2882C90.9768 92.5801 91.4712 92.4742 91.789 92.2623C92.1068 92.0504 92.2657 91.6797 92.2657 91.15C92.2657 90.6733 92.0891 90.3378 91.7536 90.126C91.4182 89.9141 90.8709 89.8082 90.1293 89.8082H88.7169V92.5801ZM88.7169 93.9043V97.0823H90.4648C91.1534 97.0823 91.6654 96.9587 92.0185 96.6939C92.3716 96.429 92.5482 96.023 92.5482 95.4403C92.5482 94.9107 92.3716 94.5399 92.0185 94.2751C91.6654 94.0102 91.118 93.9043 90.3942 93.9043H88.7169Z" fill="black"/>
<defs>
<linearGradient id="paint0_linear_1_7290" x1="22.0643" y1="32.4948" x2="64.3008" y2="32.4948" gradientUnits="userSpaceOnUse">
<stop stop-color="#D25535"/>
<stop offset="1" stop-color="#E08B20"/>
</linearGradient>
<linearGradient id="paint1_linear_1_7290" x1="51.8393" y1="35.451" x2="84.3817" y2="35.451" gradientUnits="userSpaceOnUse">
<stop stop-color="#D25535"/>
<stop offset="1" stop-color="#E08B20"/>
</linearGradient>
<linearGradient id="paint2_linear_1_7290" x1="51.8393" y1="39.2323" x2="84.3817" y2="39.2323" gradientUnits="userSpaceOnUse">
<stop stop-color="#D25535"/>
<stop offset="1" stop-color="#E08B20"/>
</linearGradient>
<linearGradient id="paint3_linear_1_7290" x1="51.8393" y1="39.2326" x2="84.3817" y2="39.2326" gradientUnits="userSpaceOnUse">
<stop stop-color="#D25535"/>
<stop offset="1" stop-color="#E08B20"/>
</linearGradient>
</defs>
</svg>

<svg xmlns="http://www.w3.org/2000/svg" width="100" height="100" fill="none"><path fill="url(#a)" d="M63.452 17.332a.85.85 0 0 0 .847-.848v-6.427C64.3 4.973 55.03 1 43.183 1s-21.116 3.973-21.116 9.057v44.881c0 5.085 9.269 9.057 21.116 9.057s21.116-3.972 21.116-9.057v-1.077a.848.848 0 0 0-1.695 0v1.077c0 3.549-7.804 7.345-19.403 7.345-11.6 0-19.422-3.796-19.422-7.345V44.31c3.214 3.214 10.594 5.42 19.404 5.42 1.483 0 2.984-.07 4.432-.194.476-.035.812-.459.776-.935-.035-.477-.459-.812-.935-.777a49 49 0 0 1-4.273.194c-11.6 0-19.404-3.796-19.404-7.345V29.461c3.214 3.213 10.594 5.42 19.404 5.42 1.5 0 2.984-.07 4.432-.194.476-.035.812-.459.776-.936-.035-.476-.459-.812-.935-.777a49 49 0 0 1-4.29.195c-11.6 0-19.404-3.796-19.404-7.345v-12.13c3.213 3.214 10.593 5.42 19.403 5.42s16.208-2.206 19.404-5.42v2.79a.89.89 0 0 0 .883.847m-20.27.07c-11.599 0-19.403-3.796-19.403-7.345s7.804-7.344 19.404-7.344 19.404 3.796 19.404 7.344c0 3.55-7.804 7.345-19.404 7.345"/><path fill="url(#b)" d="M77.63 29.902c-.018-.07-.036-.141-.071-.212 0-.017-.018-.035-.036-.053a.7.7 0 0 0-.141-.176l-4.308-4.308-2.86-2.86-2.86-2.86a.84.84 0 0 0-.6-.248h-14.02a.85.85 0 0 0-.847.848v25.106c0 .477.389.847.848.847h1.995v1.996c0 .476.388.847.847.847h1.995v1.995c0 .477.389.848.848.848h18.344a.85.85 0 0 0 .848-.848V30.061c.035-.053.017-.106.017-.159M73.32 27.82l1.395 1.395h-1.395zM53.6 44.292V20.898h12.8l1.148 1.147H55.595a.85.85 0 0 0-.848.848v21.399zm2.86 2.86V23.758h12.8l1.148 1.148H58.455a.85.85 0 0 0-.847.847v21.399zm2.843 2.86V26.601h12.306v3.46c0 .477.388.848.847.848h3.46v19.085H59.304z"/><path fill="url(#c)" d="M65.8 34.051a.867.867 0 0 0 .335-1.165.867.867 0 0 0-1.165-.335c-.07.035-1.854 1.059-1.854 3.601 0 2.013-1.006 2.172-1.324 2.225a.854.854 0 0 0-.724.847c0 .424.3.777.724.848.335.053 1.324.212 1.324 2.225 0 2.542 1.766 3.566 1.854 3.601.124.071.282.106.424.106.3 0 .6-.159.741-.441a.85.85 0 0 0-.335-1.165c-.018 0-.971-.583-.971-2.101 0-1.554-.477-2.49-1.06-3.072.583-.566 1.06-1.519 1.06-3.073 0-1.5.936-2.083.97-2.1"/><path fill="url(#d)" d="M73.462 38.395c-.335-.053-1.324-.212-1.324-2.225 0-2.542-1.765-3.566-1.854-3.601a.85.85 0 0 0-1.165.335.85.85 0 0 0 .336 1.165c.017 0 .97.583.97 2.101 0 1.554.477 2.49 1.06 3.072-.583.565-1.06 1.519-1.06 3.073 0 1.483-.918 2.083-.97 2.118a.856.856 0 0 0-.318 1.166.85.85 0 0 0 .741.44.94.94 0 0 0 .424-.105c.07-.035 1.854-1.06 1.854-3.602 0-2.013 1.006-2.172 1.324-2.224a.854.854 0 0 0 .724-.848c-.035-.441-.335-.812-.742-.865"/><path fill="#000" d="m29.853 81.599-1.007-2.79h-3.83l-.99 2.79h-1.73l3.76-10.082h1.784L31.6 81.6zm-1.448-4.203-.936-2.736c-.07-.177-.159-.477-.282-.865a10 10 0 0 1-.247-.865c-.124.564-.3 1.182-.548 1.853l-.9 2.613zM39.14 81.598h-1.625V76.92c0-.582-.106-1.006-.335-1.306-.212-.283-.565-.424-1.024-.424-.618 0-1.077.194-1.377.6-.283.406-.442 1.077-.442 2.013v3.796h-1.606v-7.592H34l.23.989h.089c.212-.353.512-.636.918-.83s.847-.3 1.324-.3c1.165 0 1.942.406 2.313 1.2h.106c.23-.37.547-.67.953-.882s.865-.318 1.395-.318c.9 0 1.571.23 1.977.688.407.46.618 1.148.618 2.102v4.943h-1.606V76.92c0-.582-.106-1.006-.336-1.306-.23-.283-.565-.424-1.041-.424-.636 0-1.078.194-1.378.583-.282.388-.441.988-.441 1.8v4.026zM50.934 81.598l-.318-1.06h-.053c-.37.46-.742.778-1.113.937-.37.158-.847.247-1.43.247-.741 0-1.324-.195-1.748-.6-.423-.407-.635-.972-.635-1.713 0-.777.282-1.377.865-1.766.583-.406 1.465-.618 2.648-.653l1.307-.035v-.406c0-.477-.106-.848-.336-1.095s-.582-.353-1.059-.353c-.388 0-.76.053-1.112.176a6.5 6.5 0 0 0-1.024.406l-.53-1.147a6.2 6.2 0 0 1 1.36-.495c.494-.105.953-.176 1.394-.176.971 0 1.695.212 2.19.636.494.423.741 1.076.741 1.977v5.12zm-2.402-1.095c.583 0 1.06-.159 1.413-.494q.53-.502.53-1.377v-.653l-.971.035c-.76.035-1.307.159-1.66.388-.353.23-.512.565-.512 1.042 0 .335.106.6.3.777.194.194.494.282.9.282M59.408 81.598h-5.755v-.988l3.83-5.368h-3.6v-1.236h5.42v1.13l-3.761 5.227h3.866zM67.795 77.784c0 1.236-.318 2.207-.954 2.896-.635.688-1.518 1.042-2.648 1.042-.706 0-1.342-.16-1.89-.477a3.07 3.07 0 0 1-1.253-1.377c-.3-.6-.441-1.29-.441-2.084 0-1.236.318-2.189.953-2.877.636-.689 1.519-1.042 2.666-1.042 1.095 0 1.96.353 2.613 1.06.618.705.954 1.659.954 2.86m-5.526 0c0 1.748.653 2.631 1.942 2.631s1.924-.883 1.924-2.63c0-1.73-.653-2.596-1.942-2.596-.671 0-1.165.23-1.465.671-.318.441-.46 1.095-.46 1.924M76.322 81.598h-1.624v-4.661c0-.583-.123-1.024-.353-1.307s-.618-.441-1.13-.441c-.689 0-1.183.194-1.5.6-.319.406-.477 1.077-.477 2.03v3.78H69.63v-7.593h1.271l.23.989h.088c.23-.353.547-.636.971-.83s.883-.3 1.395-.3c1.818 0 2.736.918 2.736 2.772zM14.157 93.357c0 1.66-.46 2.93-1.377 3.796-.918.883-2.242 1.306-3.973 1.306H6V88.432h3.107c1.59 0 2.843.424 3.726 1.289s1.324 2.066 1.324 3.637m-1.73.053c0-2.401-1.13-3.602-3.373-3.602H7.642v7.274h1.165c2.42 0 3.62-1.218 3.62-3.672M22.879 94.664c0 1.236-.318 2.207-.954 2.895-.635.69-1.518 1.042-2.648 1.042-.706 0-1.342-.159-1.89-.477a3.07 3.07 0 0 1-1.253-1.377c-.3-.6-.441-1.288-.441-2.083 0-1.236.318-2.19.953-2.878.636-.689 1.519-1.042 2.666-1.042 1.095 0 1.96.353 2.613 1.06q.954 1.06.954 2.86m-5.526 0c0 1.748.653 2.63 1.942 2.63s1.924-.882 1.924-2.63c0-1.73-.653-2.595-1.942-2.595-.67 0-1.165.23-1.465.67-.318.442-.46 1.078-.46 1.925M27.787 98.601c-1.148 0-2.013-.335-2.613-1.006s-.9-1.624-.9-2.878c0-1.271.317-2.26.935-2.949.618-.688 1.519-1.024 2.702-1.024.794 0 1.518.142 2.154.442l-.495 1.289c-.688-.265-1.236-.406-1.695-.406-1.306 0-1.977.865-1.977 2.613 0 .847.159 1.483.494 1.924q.503.636 1.43.636a4.1 4.1 0 0 0 2.03-.53v1.412c-.282.177-.6.283-.917.371-.283.07-.689.106-1.148.106M37.039 98.46l-.23-.989h-.088c-.23.353-.547.636-.954.83s-.882.3-1.412.3q-1.377 0-2.066-.689c-.459-.459-.67-1.147-.67-2.083v-4.961h1.624v4.679c0 .582.123 1.023.353 1.306.23.282.618.441 1.112.441.67 0 1.183-.194 1.5-.6.319-.406.477-1.077.477-2.03v-3.779h1.625v7.592h-1.271zM46.997 98.46h-1.625v-4.68c0-.582-.106-1.005-.335-1.306-.212-.282-.565-.423-1.024-.423-.618 0-1.077.194-1.377.6-.283.406-.442 1.077-.442 2.013v3.778h-1.607V90.85h1.272l.23.989h.087c.212-.353.512-.636.919-.83.406-.194.847-.3 1.324-.3 1.165 0 1.942.406 2.313 1.2h.106c.23-.37.547-.67.953-.882s.865-.318 1.395-.318c.9 0 1.571.23 1.977.688.406.46.618 1.148.618 2.102v4.943h-1.606v-4.661c0-.583-.106-1.006-.336-1.307-.23-.282-.565-.423-1.042-.423-.635 0-1.077.194-1.377.582-.282.389-.441.99-.441 1.801v4.026zM57.36 98.601c-1.183 0-2.1-.335-2.772-1.024-.67-.688-1.006-1.642-1.006-2.842 0-1.236.3-2.207.918-2.931q.927-1.06 2.542-1.06c1.007 0 1.801.3 2.384.918.582.6.865 1.448.865 2.508v.865h-5.05c.018.741.23 1.306.6 1.695.371.388.901.6 1.59.6.441 0 .865-.035 1.253-.124.389-.088.795-.23 1.254-.423v1.306a5 5 0 0 1-1.2.406q-.61.105-1.378.106m-.3-6.638c-.512 0-.918.159-1.236.494-.3.318-.494.794-.547 1.412h3.443c-.018-.618-.16-1.094-.46-1.43-.282-.317-.688-.476-1.2-.476M68.819 98.46h-1.607v-4.661c0-.583-.123-1.024-.353-1.307s-.618-.441-1.13-.441c-.688 0-1.183.194-1.5.6-.318.406-.477 1.077-.477 2.03v3.779h-1.607v-7.592h1.271l.23.989h.088c.23-.354.547-.636.971-.83.424-.195.883-.3 1.395-.3 1.819 0 2.737.918 2.737 2.771v4.962zM73.904 97.294c.388 0 .794-.07 1.183-.194v1.218c-.177.071-.407.142-.689.195-.282.052-.565.07-.883.07-1.536 0-2.295-.812-2.295-2.419v-4.096h-1.042v-.706l1.113-.583.547-1.606h.989v1.695h2.154v1.218h-2.154v4.06c0 .39.088.672.3.866.194.194.459.282.777.282M84.92 93.357c0 1.66-.458 2.93-1.376 3.796-.918.883-2.243 1.306-3.973 1.306h-2.807V88.432h3.107c1.59 0 2.843.424 3.726 1.289.882.865 1.324 2.066 1.324 3.637m-1.73.053c0-2.401-1.13-3.602-3.372-3.602h-1.412v7.274h1.165c2.419 0 3.62-1.218 3.62-3.672M87.075 88.431h2.984c1.377 0 2.383.194 3.001.6s.918 1.042.918 1.907c0 .583-.159 1.077-.459 1.466-.3.388-.741.635-1.306.741v.07c.706.142 1.218.39 1.553.795.336.389.495.918.495 1.59 0 .9-.318 1.606-.936 2.118-.636.512-1.5.76-2.63.76h-3.62zm1.642 4.15h1.571c.689 0 1.183-.107 1.501-.319q.477-.317.477-1.112c0-.477-.177-.812-.512-1.024-.336-.212-.883-.318-1.625-.318h-1.412zm0 1.323v3.178h1.748c.688 0 1.2-.123 1.553-.388.354-.265.53-.671.53-1.254 0-.53-.176-.9-.53-1.165-.353-.265-.9-.37-1.624-.37z"/><defs><linearGradient id="a" x1="22.064" x2="64.301" y1="32.495" y2="32.495" gradientUnits="userSpaceOnUse"><stop stop-color="#D25535"/><stop offset="1" stop-color="#E08B20"/></linearGradient><linearGradient id="b" x1="51.839" x2="84.382" y1="35.451" y2="35.451" gradientUnits="userSpaceOnUse"><stop stop-color="#D25535"/><stop offset="1" stop-color="#E08B20"/></linearGradient><linearGradient id="c" x1="51.839" x2="84.382" y1="39.232" y2="39.232" gradientUnits="userSpaceOnUse"><stop stop-color="#D25535"/><stop offset="1" stop-color="#E08B20"/></linearGradient><linearGradient id="d" x1="51.839" x2="84.382" y1="39.233" y2="39.233" gradientUnits="userSpaceOnUse"><stop stop-color="#D25535"/><stop offset="1" stop-color="#E08B20"/></linearGradient></defs></svg>
